!!! OTL: Berkowitz353
!!! Chapter: 1
!!! Section: III
!!! Page: 86
!!! Mode: 
!!! Encoder: DJB
**kern
*staff1
*I"Piano
=1-
*clefF4
*k[f#c#g#]
*A:
*M5/8
8A\L
8E\
8E\J
8F#\L
8E\J
=2
8D/L
8C#/
8BB/J
8C#/L
8AA/J
=3
8A\L
8E\
8E\J
8F#\L
8E\J
=4
8D/L
8C#/
8BB/J
4E\
=5
8F#\L
8D\
8D\J
8A\L
8F#\J
=6
8E\L
8C#\
8E\J
8A\L
8F#\J
=7
8E\L
8F#\
8G#\J
8A\L
8B\J
=8
[4.A\
4A\]
==
*-
